X:29
T: Das Maedchen und der Faehnrich
N: Q0127J
O: Mitteleuropa, Deutschland (DDR) , Sachsen, Grossenhain
R: Ballade, verbotene Liebe, Flucht
M: 2/4
L: 1/16
K: G
GB | d2d2d2g2 | B2B2B2
G2 | B3GB2d2 | c3BA2
c2 | B2d2A2c2 | B2d2A2
e2 | d2c2B2B2 | A4G2

@@@ Tune index: 1527
